**kern	**kern	**dynam
*part1	*part1	*part1
*staff2	*staff1	*
*I"Piano	*	*
*clefF4	*clefG2	*
*k[f#c#g#d#a#]	*k[f#c#g#d#a#]	*
=1	=1	=1
((4FF# 4F#	(((4dn 4f# 4b 4ddn	.
8FF#)) 8F#	8c#))) 8f# 8a# 8cc#	f
8BBL 8F# 8B	8d#XL 8b 8dd#X	<
8BB 8C# 8F# 8A#	8e 8a# 8ee	.
8BBJ 8C##X 8E#X 8G# 8B	8e#XJ 8g# 8b 8ee#X	[
=	=	=
4BB 4D# 4F# 4B	4f# 4b 4ff#	>
4.BB 4.F# 4.B	4.d# 4.b 4.dd#	]
8GG# 8C# 8E#X	8B 8c# 8e#X 8b	p
=	=	=
2FF# 2D# 2F#	2B 2d# 2f# 2b	.
4FF# 4F#	4A# 4e 4f# 4a#	.
=	=	=
4.BB 4.F#	4.B 4.d# 4.f# 4.b	p
8BBL	(8BL 8d#	<
8BB 8C#	8A# 8e	.
8BBJ 8C##X	8G#J 8e#X	.
=	=	=
4BB 4D#	4F# 4f#	[ >
4.BB 4.F#	4.B) 4.d#	]
*	*clefF4	*
8GG# 8C#	8E#X 8B	pp
=	=	=
2FF# 2D#	(2F# 2B	.
*	*^	*
4FF# 4E	4F# 4A#	8.d#L	.
.	.	16c#Jk)	.
*	*v	*v	*
=	=	=
2.BBB; 2.FF# 2.BB	2.D#; 2.F# 2.B	.
==	==	==
*-	*-	*-
!!!system-decoration: {(s1,s2)}
